svgs/solid/face-hushed.svg

<svg xmlns="http://www.w3.org/2000/svg" viewBox="0 0 512 512"><!--! Font Awesome Pro 6.2.0 by @fontawesome - https://fontawesome.com License - https://fontawesome.com/license (Commercial License) Copyright 2022 Fonticons, Inc. --><path d="M512 256c0 141.4-114.6 256-256 256S0 397.4 0 256S114.6 0 256 0S512 114.6 512 256zm-303.6 0c0-17.7-14.3-32-32-32s-32 14.3-32 32s14.3 32 32 32s32-14.3 32-32zm128 32c17.7 0 32-14.3 32-32s-14.3-32-32-32s-32 14.3-32 32s14.3 32 32 32zM304 144c0 8.8 7.2 16 16 16c33 0 60.1 18.7 68.7 27.3c6.2 6.2 16.4 6.2 22.6 0s6.2-16.4 0-22.6C398.6 152 363.8 128 320 128c-8.8 0-16 7.2-16 16zM192 160c8.8 0 16-7.2 16-16s-7.2-16-16-16c-43.8 0-78.6 24-91.3 36.7c-6.2 6.2-6.2 16.4 0 22.6s16.4 6.2 22.6 0C131.9 178.7 159 160 192 160zm64 272c26.5 0 48-21.5 48-48s-21.5-48-48-48s-48 21.5-48 48s21.5 48 48 48z"/></svg>

<svg xmlns="http://www.w3.org/2000/svg" viewBox="0 0 512 512"><!--! Font Awesome Pro 6.1.2 by @fontawesome - https://fontawesome.com License - https://fontawesome.com/license (Commercial License) Copyright 2022 Fonticons, Inc. --><path d="M0 256C0 114.6 114.6 0 256 0C397.4 0 512 114.6 512 256C512 397.4 397.4 512 256 512C114.6 512 0 397.4 0 256zM176.4 288C194 288 208.4 273.7 208.4 256C208.4 238.3 194 224 176.4 224C158.7 224 144.4 238.3 144.4 256C144.4 273.7 158.7 288 176.4 288zM336.4 224C318.7 224 304.4 238.3 304.4 256C304.4 273.7 318.7 288 336.4 288C354 288 368.4 273.7 368.4 256C368.4 238.3 354 224 336.4 224zM178.1 160.9C183.2 160.3 187.6 160 192 160C200.8 160 208 152.8 208 144C208 135.2 200.8 128 192 128C186.2 128 180.4 128.4 174.8 129.1C146.6 132.9 121.1 145.6 101.1 164.3C94.62 170.3 94.28 180.5 100.3 186.9C106.3 193.4 116.5 193.7 122.9 187.7C138.4 173.2 157.8 163.7 178.1 160.9zM320 160C324.4 160 328.8 160.3 333 160.9C354.2 163.7 373.6 173.2 389.1 187.7C395.5 193.7 405.7 193.4 411.7 186.9C417.7 180.5 417.4 170.3 410.9 164.3C390.9 145.6 365.4 132.9 337.2 129.1C331.6 128.4 325.8 128 320 128C311.2 128 304 135.2 304 144C304 152.8 311.2 160 320 160zM256 432C282.5 432 304 410.5 304 384C304 357.5 282.5 336 256 336C229.5 336 208 357.5 208 384C208 410.5 229.5 432 256 432z"/></svg>
